X:1
T: Master Busbie Maitland
C:Bruce Shawyer (simplified from Mr. Busbie Maitland)
R:Reel
Q:232
K:D
M:4/4
L:1/8
A2|:"D"D2AD d2dA|"D"d2df "A7"e2E2|"D"D2AF d2dA|"A7"cd eg "D"f2d2|
"D"D2AD d2dA|"D"d2df "A7"e2E2|"D"D2AF d2dA|"A7"cd eg "D"f2d2|
"D"fe de fg af|"A7"gf ed c2eg|"D"fe de fg af|"a7"ge cA "D"d2d2|
"D"fe de fg af|"A7"gf ed c2eg|"D"fd ge "Em"af ge|"A7"fd ec "D"d2:|
